loleaflet/images/lc_formatdatalabel.svg

<svg viewBox="0 0 24 24" xmlns="http://www.w3.org/2000/svg"><path d="m12 5c-.554 0-1 .446-1 1v12c0 .554.446 1 1 1v-1-1a1.0001 1.0001 0 0 1 .802734-.980469l.28125-.05664-.158203-.236329a1.0001 1.0001 0 0 1 .125-1.261718l.707031-.707032.707032-.707031a1.0001 1.0001 0 0 1 .535156-.277343v-6.773438c0-.554-.446-1-1-1z"/><g fill="#3a3a38" transform="matrix(0 -1 -1 0 0 0)"><rect height="1" ry=".5" width="20" x="-22" y="-5"/><path d="m2.5 19c-.277 0-.5.223-.5.5s.223.5.5.5h10.400391l-.097657-.019531a1.0001 1.0001 0 0 1 -.802734-.980469z" transform="matrix(0 -1 -1 0 0 0)"/></g><path d="m12 6v11a1.0001 1.0001 0 0 1 .802734-.980469l.28125-.05664-.158203-.236329a1.0001 1.0001 0 0 1 .125-1.261718l.707031-.707032.242188-.242187v-7.515625z" fill="#c8c6c4"/><rect fill="#3a3a38" height="11" ry="1" width="4" x="6" y="8"/><path d="m7 9h2v9h-2z" fill="#c8c6c4"/><path d="m17 11c-.554 0-1 .446-1 1v.900391l.019531-.097657a1.0001 1.0001 0 0 1 .980469-.802734h1 1a1.0001 1.0001 0 0 1 .980469.802734l.019531.097657v-.900391c0-.554-.446-1-1-1z"/><rect fill="#1e8bcd" height="2" ry=".5" width="4" x="16" y="8"/><path d="m17 13-.349609 1.744141-1.478516-.986329-.707031.707032-.707032.707031.986329 1.478516-1.744141.349609v1 1l1.744141.349609-.986329 1.478516.707032.707031.707031.707032 1.478516-.986329.349609 1.744141h1 1l.349609-1.744141 1.478516.986329.707031-.707032.707032-.707031-.986329-1.478516 1.744141-.349609v-1-1l-1.744141-.349609.986329-1.478516-.707032-.707031-.707031-.707032-1.478516.986329-.349609-1.744141h-1zm.800781 1h.398438l.300781 1.5h.535156l.378906.378906 1.273438-.847656.28125.28125-.847656 1.273438.378906.378906v.535156l1.5.300781v.398438l-1.5.300781v.535156l-.378906.378906.847656 1.273438-.28125.28125-1.273438-.847656-.378906.378906h-.535156l-.300781 1.5h-.398438l-.300781-1.5h-.535156l-.378906-.378906-1.273438.847656-.28125-.28125.847656-1.273438-.378906-.378906v-.535156l-1.5-.300781v-.398438l1.5-.300781v-.535156l.378906-.378906-.847656-1.273438.28125-.28125 1.273438.847656.378906-.378906h.535156zm.199219 2a2 2 0 0 0 -2 2 2 2 0 0 0 2 2 2 2 0 0 0 2-2 2 2 0 0 0 -2-2zm0 1a1 1 0 0 1 1 1 1 1 0 0 1 -1 1 1 1 0 0 1 -1-1 1 1 0 0 1 1-1z" fill="#1e8bcd"/><path d="m17.800781 14h.398438l.300781 1.5h.535156l.378906.378906 1.273438-.847656.28125.28125-.847656 1.273438.378906.378906v.535156l1.5.300781v.398438l-1.5.300781v.535156l-.378906.378906.847656 1.273438-.28125.28125-1.273438-.847656-.378906.378906h-.535156l-.300781 1.5h-.398438l-.300781-1.5h-.535156l-.378906-.378906-1.273438.847656-.28125-.28125.847656-1.273438-.378906-.378906v-.535156l-1.5-.300781v-.398438l1.5-.300781v-.535156l.378906-.378906-.847656-1.273438.28125-.28125 1.273438.847656.378906-.378906h.535156zm.199219 2c-1.104569 0-2 .895431-2 2s.895431 2 2 2 2-.895431 2-2-.895431-2-2-2z" fill="#fafafa"/></svg>

<?xml version="1.0" encoding="UTF-8" standalone="no"?>
<svg
   xmlns:dc="http://purl.org/dc/elements/1.1/"
   xmlns:cc="http://creativecommons.org/ns#"
   xmlns:rdf="http://www.w3.org/1999/02/22-rdf-syntax-ns#"
   xmlns:svg="http://www.w3.org/2000/svg"
   xmlns="http://www.w3.org/2000/svg"
   xmlns:sodipodi="http://sodipodi.sourceforge.net/DTD/sodipodi-0.dtd"
   xmlns:inkscape="http://www.inkscape.org/namespaces/inkscape"
   viewBox="0 0 24 24"
   version="1.1"
   id="svg20"
   sodipodi:docname="lc_formatdatalabel.svg"
   inkscape:version="0.92.5 (2060ec1f9f, 2020-04-08)">
  <metadata
     id="metadata26">
    <rdf:RDF>
      <cc:Work
         rdf:about="">
        <dc:format>image/svg+xml</dc:format>
        <dc:type
           rdf:resource="http://purl.org/dc/dcmitype/StillImage" />
        <dc:title></dc:title>
      </cc:Work>
    </rdf:RDF>
  </metadata>
  <defs
     id="defs24" />
  <sodipodi:namedview
     pagecolor="#ffffff"
     bordercolor="#666666"
     borderopacity="1"
     objecttolerance="10"
     gridtolerance="10"
     guidetolerance="10"
     inkscape:pageopacity="0"
     inkscape:pageshadow="2"
     inkscape:window-width="1366"
     inkscape:window-height="700"
     id="namedview22"
     showgrid="true"
     inkscape:zoom="9.8333333"
     inkscape:cx="6.8394991"
     inkscape:cy="0.36223412"
     inkscape:window-x="0"
     inkscape:window-y="0"
     inkscape:window-maximized="1"
     inkscape:current-layer="svg20">
    <inkscape:grid
       type="xygrid"
       id="grid833" />
  </sodipodi:namedview>
  <path
     d="M 12 5 C 11.446 5 11 5.446 11 6 L 11 18 C 11 18.554 11.446 19 12 19 L 12 18 L 12 17 A 1.0001 1.0001 0 0 1 12.802734 16.019531 L 13.083984 15.962891 L 12.925781 15.726562 A 1.0001 1.0001 0 0 1 13.050781 14.464844 L 13.757812 13.757812 L 14.464844 13.050781 A 1.0001 1.0001 0 0 1 15 12.773438 L 15 6 C 15 5.446 14.554 5 14 5 L 12 5 z "
     id="rect2" />
  <g
     fill="#3a3a38"
     transform="matrix(0 -1 -1 0 0 0)"
     id="g8">
    <rect
       height="1"
       ry=".5"
       width="20"
       x="-22"
       y="-5"
       id="rect4" />
    <path
       d="M 2.5 19 C 2.223 19 2 19.223 2 19.5 C 2 19.777 2.223 20 2.5 20 L 12.900391 20 L 12.802734 19.980469 A 1.0001 1.0001 0 0 1 12 19 L 2.5 19 z "
       transform="matrix(0,-1,-1,0,0,0)"
       id="rect6" />
  </g>
  <path
     d="M 12 6 L 12 17 A 1.0001 1.0001 0 0 1 12.802734 16.019531 L 13.083984 15.962891 L 12.925781 15.726562 A 1.0001 1.0001 0 0 1 13.050781 14.464844 L 13.757812 13.757812 L 14 13.515625 L 14 6 L 12 6 z "
     id="path10"
     style="fill:#c8c6c4" />
  <rect
     fill="#3a3a38"
     height="11"
     ry="1"
     width="4"
     x="6"
     y="8"
     id="rect12" />
  <path
     d="m7 9h2v9h-2z"
     fill="#c8c6c4"
     id="path14" />
  <path
     d="M 17 11 C 16.446 11 16 11.446 16 12 L 16 12.900391 L 16.019531 12.802734 A 1.0001 1.0001 0 0 1 17 12 L 18 12 L 19 12 A 1.0001 1.0001 0 0 1 19.980469 12.802734 L 20 12.900391 L 20 12 C 20 11.446 19.554 11 19 11 L 17 11 z "
     id="rect16" />
  <rect
     style="opacity:1;fill:#1e8bcd;fill-opacity:1;stroke:none;stroke-width:1;stroke-linecap:round;stroke-linejoin:round;stroke-miterlimit:4;stroke-dasharray:none;stroke-opacity:0.50196078"
     id="rect835"
     width="4"
     height="2"
     x="16"
     y="8"
     ry="0.5" />
  <path
     inkscape:connector-curvature="0"
     style="opacity:1;fill:#1e8bcd;fill-opacity:1;stroke:none;stroke-width:3;stroke-linecap:round;stroke-linejoin:round;stroke-miterlimit:4;stroke-dasharray:none;stroke-dashoffset:0;stroke-opacity:1;paint-order:normal"
     d="m 17,13 -0.349609,1.744141 -1.478516,-0.986329 -0.707031,0.707032 -0.707032,0.707031 0.986329,1.478516 L 13,17 v 1 1 l 1.744141,0.349609 -0.986329,1.478516 0.707032,0.707031 0.707031,0.707032 1.478516,-0.986329 L 17,23 h 1 1 l 0.349609,-1.744141 1.478516,0.986329 0.707031,-0.707032 0.707032,-0.707031 L 21.255859,19.349609 23,19 V 18 17 L 21.255859,16.650391 22.242188,15.171875 21.535156,14.464844 20.828125,13.757812 19.349609,14.744141 19,13 h -1 z m 0.800781,1 h 0.398438 L 18.5,15.5 h 0.535156 L 19.414062,15.878906 20.6875,15.03125 20.96875,15.3125 20.121094,16.585938 20.5,16.964844 V 17.5 l 1.5,0.300781 v 0.398438 L 20.5,18.5 v 0.535156 L 20.121094,19.414062 20.96875,20.6875 20.6875,20.96875 19.414062,20.121094 19.035156,20.5 H 18.5 L 18.199219,22 H 17.800781 L 17.5,20.5 H 16.964844 L 16.585938,20.121094 15.3125,20.96875 15.03125,20.6875 15.878906,19.414062 15.5,19.035156 V 18.5 L 14,18.199219 V 17.800781 L 15.5,17.5 V 16.964844 L 15.878906,16.585938 15.03125,15.3125 15.3125,15.03125 16.585938,15.878906 16.964844,15.5 H 17.5 Z M 18,16 a 2,2 0 0 0 -2,2 2,2 0 0 0 2,2 2,2 0 0 0 2,-2 2,2 0 0 0 -2,-2 z m 0,1 a 1,1 0 0 1 1,1 1,1 0 0 1 -1,1 1,1 0 0 1 -1,-1 1,1 0 0 1 1,-1 z"
     id="path1470" />
  <path
     id="path1537"
     d="m 17.800781,14 h 0.398438 L 18.5,15.5 h 0.535156 L 19.414062,15.878906 20.6875,15.03125 20.96875,15.3125 20.121094,16.585938 20.5,16.964844 V 17.5 l 1.5,0.300781 v 0.398438 L 20.5,18.5 v 0.535156 L 20.121094,19.414062 20.96875,20.6875 20.6875,20.96875 19.414062,20.121094 19.035156,20.5 H 18.5 L 18.199219,22 H 17.800781 L 17.5,20.5 H 16.964844 L 16.585938,20.121094 15.3125,20.96875 15.03125,20.6875 15.878906,19.414062 15.5,19.035156 V 18.5 L 14,18.199219 V 17.800781 L 15.5,17.5 V 16.964844 L 15.878906,16.585938 15.03125,15.3125 15.3125,15.03125 16.585938,15.878906 16.964844,15.5 H 17.5 Z M 18,16 c -1.104569,0 -2,0.895431 -2,2 0,1.104569 0.895431,2 2,2 1.104569,0 2,-0.895431 2,-2 0,-1.104569 -0.895431,-2 -2,-2 z"
     style="opacity:1;fill:#fafafa;fill-opacity:1;stroke:none;stroke-width:3;stroke-linecap:round;stroke-linejoin:round;stroke-miterlimit:4;stroke-dasharray:none;stroke-dashoffset:0;stroke-opacity:1;paint-order:normal"
     inkscape:connector-curvature="0"
     sodipodi:nodetypes="cccccccccccccccccccccccccccccccccccccccccsssss" />
</svg>
